themes/ColwichTheme/static/images/icons/person.svg

<svg viewBox="0 0 448 512" xmlns="http://www.w3.org/2000/svg"><path d="m70.63 272c-12.5 0-22.63-10.1-22.63-22.6 0-6 2.38-11.8 6.63-16l3.88-3.9c24-24 37.49-56.6 37.49-91.4v-10.1c0-70.69 57.3-128 128-128 70.6 0 127.8 57.1 128 127.6v.8.2 9.5c0 34.8 13.5 67.4 37.5 91.4l3.9 3.9c4.2 4.2 6.6 10 6.6 16 0 12.5-10.1 22.6-22.6 22.6zm57.37-160v48c0 53 42.1 96 96 96 53 0 96-43 96-96v-64h-8c-22.8 0-42.8-11.91-54.1-29.84-17.8 27.5-47.3 45.84-81.9 45.84zm158.7 208c89.1 0 161.3 72.2 161.3 161.3 0 16.9-13.8 30.7-30.7 30.7h-386.58c-16.97 0-30.72-13.8-30.72-30.7 0-89.1 72.21-161.3 161.3-161.3z"/><path d="m312 96h8v64c0 53-43 96-96 96-53.9 0-96-43-96-96v-48h48c34.6 0 64.1-18.34 81.9-45.84 11.3 17.94 31.3 29.84 54.1 29.84z" opacity=".4"/></svg>

<svg xmlns="http://www.w3.org/2000/svg" viewBox="0 0 448 512"><!--! Font Awesome Pro 6.1.1 by @fontawesome - https://fontawesome.com License - https://fontawesome.com/license (Commercial License) Copyright 2022 Fonticons, Inc. --><defs><style>.fa-secondary{opacity:.4}</style></defs><path class="fa-primary" d="M70.63 272C58.13 272 48 261.9 48 249.4C48 243.4 50.38 237.6 54.63 233.4L58.51 229.5C82.51 205.5 96 172.9 96 138.1V128C96 57.31 153.3 0 224 0C294.6 0 351.8 57.1 352 127.6V128.4L352 128.6V138.1C352 172.9 365.5 205.5 389.5 229.5L393.4 233.4C397.6 237.6 400 243.4 400 249.4C400 261.9 389.9 272 377.4 272H70.63zM128 112V160C128 213 170.1 256 224 256C277 256 320 213 320 160L320 96H312C289.2 96 269.2 84.09 257.9 66.16C240.1 93.66 210.6 112 176 112H128zM286.7 320C375.8 320 448 392.2 448 481.3C448 498.2 434.2 512 417.3 512H30.72C13.75 512 0 498.2 0 481.3C0 392.2 72.21 320 161.3 320H286.7z"/><path class="fa-secondary" d="M312 96H320L320 160C320 213 277 256 224 256C170.1 256 128 213 128 160L128 112H176C210.6 112 240.1 93.66 257.9 66.16C269.2 84.1 289.2 96 312 96V96z"/></svg>
